X:1
T:Llandaff, CM
T:Edwin Moss (1838-?)
T:Llandaff, CM
T:Public Domain
C:Edwin Moss (1838-?)
Z:Public Domain
%%score ( 1 2 ) ( 3 4 )
L:1/8
M:4/4
K:E
V:1 treble 
V:2 treble 
V:3 bass 
V:4 bass 
V:1
 [EG]2 | [DF]2 E2 [DA]2 [EG]2 | [Ec]2 [EF]2 [DF]2 [DF]2 | [EB]2 [EA]2 [EG]2 [DF]2 | [EG]6 [EB]2 | %5
 [Ec]2 [Ee]2 [DA]2 [EG]2 | [DF]2 [^EG]2 [FA]2 [FA]2 | [EG]2 [=DG]2 [CA]2 [^DF]2 | E6 |] %9
V:2
 x2 | x2 E2 x4 | x8 | x8 | x8 | x8 | x8 | x8 | E6 |] %9
V:3
 [E,B,]2 | [A,B,]2 [G,B,]2 [F,B,]2 [E,B,]2 | A,2 [A,C]2 [A,B,]2 [G,B,]2 | %3
 [F,C]2 [F,C]2 B,2 [B,,B,]2 | [E,B,]6 [E,G,]2 | A,2 [G,B,]2 [F,B,]2 [E,B,]2 | %6
 [A,B,]2 [G,B,]2 [F,C]2 [D,B,]2 | [E,B,]2 [E,B,]2 [A,,F,]2 [B,,A,]2 | [E,G,]6 |] %9
V:4
 x2 | x8 | A,2 x6 | x4 B,2 x2 | x8 | A,2 x6 | x8 | x8 | x6 |] %9

